svg/u1f476_1f3fe.svg

<svg viewBox="0 0 128 128" xmlns="http://www.w3.org/2000/svg">
  <path id="ears" d="M101.35,68.63h-74.7c-8.05,0-14.64,6.34-14.64,14.1c0,7.75,6.59,14.1,14.64,14.1h74.7 c8.05,0,14.64-6.34,14.64-14.1C116,74.97,109.41,68.63,101.35,68.63z" fill="#7A4C32"/>
  <path id="head" d="M103.76,32.78c-9.61-14.62-22-19.62-40-19.62s-30.39,4.99-40,19.62 c-7.04,10.72-8.74,27.57-6.57,44.93c2.09,16.69,3.82,25.85,14.18,35.2c9,8.12,21.22,9.87,31.7,9.87h0.46h0.23h0.23h0.46 c10.48,0,22.71-1.75,31.7-9.87c10.36-9.35,12.09-18.51,14.18-35.2C112.5,60.35,110.8,43.49,103.76,32.78z" fill="#A56C43"/>
  <path id="hair" d="M78.65,34.38c0.14-0.15,0.28-0.29,0.42-0.44c0.1-0.11,0.2-0.23,0.3-0.34 c0.23-0.27,0.45-0.54,0.66-0.82c0.03-0.04,0.06-0.08,0.09-0.12c0.2-0.27,0.38-0.55,0.56-0.84c0.05-0.08,0.1-0.17,0.15-0.25 c0.17-0.29,0.34-0.58,0.5-0.89c0.03-0.05,0.05-0.09,0.07-0.14c0.38-0.75,0.71-1.56,0.98-2.41c0.01-0.03,0.02-0.06,0.03-0.09 c0.55-1.77,0.87-3.74,0.87-5.96c0-4.44-1.6-7.95-4.04-10.6c-0.03-0.03-0.05-0.05-0.07-0.08c-0.19-0.2-0.39-0.4-0.59-0.6 c-0.04-0.04-0.08-0.08-0.12-0.12c-0.19-0.18-0.38-0.35-0.58-0.52c-0.05-0.04-0.1-0.08-0.14-0.12c-0.2-0.17-0.4-0.33-0.6-0.49 c-0.05-0.04-0.1-0.07-0.14-0.11c-0.22-0.16-0.44-0.32-0.66-0.48c-0.04-0.02-0.07-0.05-0.11-0.07c-0.8-0.54-1.63-1.02-2.49-1.43 c-0.03-0.02-0.07-0.03-0.1-0.05c-0.25-0.12-0.5-0.23-0.75-0.34C72.8,7.03,72.73,7,72.66,6.97c-0.22-0.09-0.44-0.18-0.66-0.26 c-0.08-0.03-0.17-0.06-0.25-0.09c-0.21-0.08-0.42-0.15-0.62-0.22c-0.09-0.03-0.18-0.06-0.27-0.09c-0.21-0.07-0.41-0.13-0.62-0.19 c-0.09-0.03-0.18-0.05-0.28-0.08c-0.21-0.06-0.42-0.11-0.63-0.16c-0.09-0.02-0.17-0.04-0.26-0.06c-0.23-0.05-0.46-0.1-0.68-0.15 c-0.07-0.01-0.14-0.03-0.21-0.04C67.59,5.5,67,5.41,66.41,5.34c-0.08-0.01-0.16-0.01-0.24-0.02c-0.21-0.02-0.41-0.04-0.62-0.05 c-0.12-0.01-0.23-0.01-0.35-0.02c-0.17-0.01-0.33-0.02-0.49-0.02c-0.13,0-0.26-0.01-0.4-0.01c-0.09,0-0.18-0.01-0.26-0.01 c-0.03,0-0.06,0-0.1,0c-0.43,0-0.86,0.02-1.28,0.05c-0.08,0.01-0.16,0.01-0.24,0.02c-0.43,0.04-0.85,0.08-1.25,0.15 c-4.91,0.8-8.88,3.38-11.36,5.9c-1.49,1.51-2.44,3-2.73,4.07l0,0l0,0c0,0,0.01,0,0.01,0c3.18-0.81,7.29-1.52,11.87-1.76 c6.2-0.43,11.38,3.1,11.13,8.52c-0.03,0.65-0.11,1.26-0.22,1.83c-0.01,0.06-0.02,0.11-0.03,0.17c-0.05,0.22-0.11,0.44-0.17,0.65 c-0.03,0.1-0.06,0.2-0.08,0.29c-0.06,0.18-0.12,0.36-0.19,0.54c-0.04,0.11-0.09,0.22-0.14,0.33c-0.07,0.16-0.14,0.31-0.21,0.45 c-0.06,0.12-0.12,0.23-0.19,0.34c-0.07,0.13-0.15,0.26-0.23,0.38c-0.08,0.12-0.17,0.24-0.25,0.36c-0.07,0.1-0.14,0.2-0.22,0.3 c-0.13,0.16-0.27,0.31-0.41,0.45c-0.04,0.04-0.08,0.09-0.12,0.13c-0.19,0.19-0.39,0.36-0.6,0.53c-0.04,0.03-0.09,0.06-0.13,0.09 c-0.17,0.13-0.35,0.26-0.53,0.37c-0.06,0.03-0.11,0.07-0.17,0.1c-0.18,0.11-0.36,0.21-0.54,0.3c-0.06,0.03-0.11,0.06-0.17,0.08 c-0.19,0.09-0.39,0.18-0.6,0.26c-0.04,0.02-0.09,0.04-0.14,0.05c-0.23,0.09-0.46,0.17-0.7,0.24c-0.02,0.01-0.04,0.01-0.06,0.02 c-1.08,0.32-2.24,0.46-3.42,0.46c-3.56,0-7.25-1.32-9.37-3.21c-0.19-0.17-0.42-0.25-0.64-0.25c-0.05,0-0.1,0.02-0.14,0.03 c-0.04,0.01-0.09,0.01-0.13,0.03c-0.06,0.02-0.12,0.04-0.18,0.07c-0.1,0.05-0.18,0.11-0.26,0.18c-0.02,0.02-0.03,0.04-0.05,0.06 c-0.07,0.08-0.13,0.18-0.18,0.28c-0.01,0.02-0.01,0.03-0.02,0.05c-0.05,0.13-0.08,0.28-0.06,0.44c0.3,3.02,2.2,6.8,6.72,9.64 c4.3,2.71,13.35,2.74,19.79-1.67c0.06-0.04,0.12-0.08,0.18-0.12c0.19-0.14,0.39-0.28,0.58-0.42c0.08-0.06,0.17-0.13,0.25-0.2 c0.28-0.22,0.55-0.45,0.81-0.69c0.13-0.12,0.26-0.24,0.39-0.36C78.41,34.63,78.53,34.5,78.65,34.38z" fill="#3C2C23"/>
  <radialGradient id="hairHighlights_1_" cx="63.4277" cy="87.9031" gradientTransform="matrix(1 0 0 -1 0 128)" gradientUnits="userSpaceOnUse" r="35.5352">
    <stop offset="0.6985" stop-color="#554138" stop-opacity="0"/>
    <stop offset="1" stop-color="#554138"/>
  </radialGradient>
  <path id="hairHighlights" d="M78.65,34.38c0.14-0.15,0.28-0.29,0.42-0.44 c0.1-0.11,0.2-0.23,0.3-0.34c0.23-0.27,0.45-0.54,0.66-0.82c0.03-0.04,0.06-0.08,0.09-0.12c0.2-0.27,0.38-0.55,0.56-0.84 c0.05-0.08,0.1-0.17,0.15-0.25c0.17-0.29,0.34-0.58,0.5-0.89c0.03-0.05,0.05-0.09,0.07-0.14c0.38-0.75,0.71-1.56,0.98-2.41 c0.01-0.03,0.02-0.06,0.03-0.09c0.55-1.77,0.87-3.74,0.87-5.96c0-4.44-1.6-7.95-4.04-10.6c-0.03-0.03-0.05-0.05-0.07-0.08 c-0.19-0.2-0.39-0.4-0.59-0.6c-0.04-0.04-0.08-0.08-0.12-0.12c-0.19-0.18-0.38-0.35-0.58-0.52c-0.05-0.04-0.1-0.08-0.14-0.12 c-0.2-0.17-0.4-0.33-0.6-0.49c-0.05-0.04-0.1-0.07-0.14-0.11c-0.22-0.16-0.44-0.32-0.66-0.48c-0.04-0.02-0.07-0.05-0.11-0.07 c-0.8-0.54-1.63-1.02-2.49-1.43c-0.03-0.02-0.07-0.03-0.1-0.05c-0.25-0.12-0.5-0.23-0.75-0.34C72.8,7.03,72.73,7,72.66,6.97 c-0.22-0.09-0.44-0.18-0.66-0.26c-0.08-0.03-0.17-0.06-0.25-0.09c-0.21-0.08-0.42-0.15-0.62-0.22c-0.09-0.03-0.18-0.06-0.27-0.09 c-0.21-0.07-0.41-0.13-0.62-0.19c-0.09-0.03-0.18-0.05-0.28-0.08c-0.21-0.06-0.42-0.11-0.63-0.16c-0.09-0.02-0.17-0.04-0.26-0.06 c-0.23-0.05-0.46-0.1-0.68-0.15c-0.07-0.01-0.14-0.03-0.21-0.04C67.59,5.5,67,5.41,66.41,5.34c-0.08-0.01-0.16-0.01-0.24-0.02 c-0.21-0.02-0.41-0.04-0.62-0.05c-0.12-0.01-0.23-0.01-0.35-0.02c-0.17-0.01-0.33-0.02-0.49-0.02c-0.13,0-0.26-0.01-0.4-0.01 c-0.09,0-0.18-0.01-0.26-0.01c-0.03,0-0.06,0-0.1,0c-0.43,0-0.86,0.02-1.28,0.05c-0.08,0.01-0.16,0.01-0.24,0.02 c-0.43,0.04-0.85,0.08-1.25,0.15c-4.91,0.8-8.88,3.38-11.36,5.9c-1.49,1.51-2.44,3-2.73,4.07l0,0l0,0c0,0,0.01,0,0.01,0 c3.18-0.81,7.29-1.52,11.87-1.76c6.2-0.43,11.38,3.1,11.13,8.52c-0.03,0.65-0.11,1.26-0.22,1.83c-0.01,0.06-0.02,0.11-0.03,0.17 c-0.05,0.22-0.11,0.44-0.17,0.65c-0.03,0.1-0.06,0.2-0.08,0.29c-0.06,0.18-0.12,0.36-0.19,0.54c-0.04,0.11-0.09,0.22-0.14,0.33 c-0.07,0.16-0.14,0.31-0.21,0.45c-0.06,0.12-0.12,0.23-0.19,0.34c-0.07,0.13-0.15,0.26-0.23,0.38c-0.08,0.12-0.17,0.24-0.25,0.36 c-0.07,0.1-0.14,0.2-0.22,0.3c-0.13,0.16-0.27,0.31-0.41,0.45c-0.04,0.04-0.08,0.09-0.12,0.13c-0.19,0.19-0.39,0.36-0.6,0.53 c-0.04,0.03-0.09,0.06-0.13,0.09c-0.17,0.13-0.35,0.26-0.53,0.37c-0.06,0.03-0.11,0.07-0.17,0.1c-0.18,0.11-0.36,0.21-0.54,0.3 c-0.06,0.03-0.11,0.06-0.17,0.08c-0.19,0.09-0.39,0.18-0.6,0.26c-0.04,0.02-0.09,0.04-0.14,0.05c-0.23,0.09-0.46,0.17-0.7,0.24 c-0.02,0.01-0.04,0.01-0.06,0.02c-1.08,0.32-2.24,0.46-3.42,0.46c-3.56,0-7.25-1.32-9.37-3.21c-0.19-0.17-0.42-0.25-0.64-0.25 c-0.05,0-0.1,0.02-0.14,0.03c-0.04,0.01-0.09,0.01-0.13,0.03c-0.06,0.02-0.12,0.04-0.18,0.07c-0.1,0.05-0.18,0.11-0.26,0.18 c-0.02,0.02-0.03,0.04-0.05,0.06c-0.07,0.08-0.13,0.18-0.18,0.28c-0.01,0.02-0.01,0.03-0.02,0.05c-0.05,0.13-0.08,0.28-0.06,0.44 c0.3,3.02,2.2,6.8,6.72,9.64c4.3,2.71,13.35,2.74,19.79-1.67c0.06-0.04,0.12-0.08,0.18-0.12c0.19-0.14,0.39-0.28,0.58-0.42 c0.08-0.06,0.17-0.13,0.25-0.2c0.28-0.22,0.55-0.45,0.81-0.69c0.13-0.12,0.26-0.24,0.39-0.36C78.41,34.63,78.53,34.5,78.65,34.38z" fill="url(#hairHighlights_1_)"/>
  <path id="nose" d="M69.21,82.71c-0.14-0.06-0.28-0.09-0.42-0.11h-9.3c-0.14,0.02-0.28,0.05-0.42,0.11 c-0.84,0.34-1.31,1.22-0.91,2.14c0.4,0.93,2.25,3.54,5.98,3.54s5.58-2.61,5.98-3.54C70.51,83.92,70.05,83.05,69.21,82.71z" fill="#875334"/>
  <g id="eyes">
    <ellipse cx="42.27" cy="76.92" fill="#42312C" rx="6.48" ry="6.71"/>
    <ellipse cx="85.99" cy="76.92" fill="#42312C" rx="6.48" ry="6.71"/>
  </g>
  <path id="mouth" d="M73.46,96.64c-3.6,2.14-15.4,2.14-18.99,0c-2.07-1.23-4.18,0.65-3.32,2.53 c0.84,1.85,7.28,6.13,12.85,6.13c5.56,0,11.92-4.28,12.76-6.13C77.61,97.29,75.52,95.41,73.46,96.64z" fill="#473530"/>
</svg>

<svg viewBox="0 0 128 128" xmlns="http://www.w3.org/2000/svg">
  <defs>
    <radialGradient id="hairHighlights_1_" cx="63.4277" cy="-40.0969" gradientTransform="matrix(1 0 0 -1 0 0)" gradientUnits="userSpaceOnUse" r="35.5352">
      <stop offset="0.6985" stop-color="#554138" stop-opacity="0"/>
      <stop offset="1" stop-color="#554138"/>
    </radialGradient>
  </defs>
  <path id="ears" d="M101.35,68.63 L26.65,68.63 C18.6,68.63 12.01,74.97 12.01,82.73 C12.01,90.48 18.6,96.83 26.65,96.83 L101.35,96.83 C109.4,96.83 115.99,90.49 115.99,82.73 C116,74.97 109.41,68.63 101.35,68.63 Z" fill="#7A4C32"/>
  <path id="head" d="M103.76,32.78 C94.15,18.16 81.76,13.16 63.76,13.16 C45.76,13.16 33.37,18.15 23.76,32.78 C16.72,43.5 15.02,60.35 17.19,77.71 C19.28,94.4 21.01,103.56 31.37,112.91 C40.37,121.03 52.59,122.78 63.07,122.78 L63.53,122.78 L63.76,122.78 L63.99,122.78 L64.45,122.78 C74.93,122.78 87.16,121.03 96.15,112.91 C106.51,103.56 108.24,94.4 110.33,77.71 C112.5,60.35 110.8,43.49 103.76,32.78 Z" fill="#A56C43"/>
  <path id="hair" d="M78.65,34.38 C78.79,34.23 78.93,34.09 79.07,33.94 C79.17,33.83 79.27,33.71 79.37,33.6 C79.6,33.33 79.82,33.06 80.03,32.78 C80.06,32.74 80.09,32.7 80.12,32.66 C80.32,32.39 80.5,32.11 80.68,31.82 C80.73,31.74 80.78,31.65 80.83,31.57 C81,31.28 81.17,30.99 81.33,30.68 C81.36,30.63 81.38,30.59 81.4,30.54 C81.78,29.79 82.11,28.98 82.38,28.13 C82.39,28.1 82.4,28.07 82.41,28.04 C82.96,26.27 83.28,24.3 83.28,22.08 C83.28,17.64 81.68,14.13 79.24,11.48 C79.21,11.45 79.19,11.43 79.17,11.4 C78.98,11.2 78.78,11 78.58,10.8 C78.54,10.76 78.5,10.72 78.46,10.68 C78.27,10.5 78.08,10.33 77.88,10.16 C77.83,10.12 77.78,10.08 77.74,10.04 C77.54,9.87 77.34,9.71 77.14,9.55 C77.09,9.51 77.04,9.48 77,9.44 C76.78,9.28 76.56,9.12 76.34,8.96 C76.3,8.94 76.27,8.91 76.23,8.89 C75.43,8.35 74.6,7.87 73.74,7.46 C73.71,7.44 73.67,7.43 73.64,7.41 C73.39,7.29 73.14,7.18 72.89,7.07 C72.8,7.03 72.73,7 72.66,6.97 C72.44,6.88 72.22,6.79 72,6.71 C71.92,6.68 71.83,6.65 71.75,6.62 C71.54,6.54 71.33,6.47 71.13,6.4 C71.04,6.37 70.95,6.34 70.86,6.31 C70.65,6.24 70.45,6.18 70.24,6.12 C70.15,6.09 70.06,6.07 69.96,6.04 C69.75,5.98 69.54,5.93 69.33,5.88 C69.24,5.86 69.16,5.84 69.07,5.82 C68.84,5.77 68.61,5.72 68.39,5.67 C68.32,5.66 68.25,5.64 68.18,5.63 C67.59,5.5 67,5.41 66.41,5.34 C66.33,5.33 66.25,5.33 66.17,5.32 C65.96,5.3 65.76,5.28 65.55,5.27 C65.43,5.26 65.32,5.26 65.2,5.25 C65.03,5.24 64.87,5.23 64.71,5.23 C64.58,5.23 64.45,5.22 64.31,5.22 C64.22,5.22 64.13,5.21 64.05,5.21 C64.02,5.21 63.99,5.21 63.95,5.21 C63.52,5.21 63.09,5.23 62.67,5.26 C62.59,5.27 62.51,5.27 62.43,5.28 C62,5.32 61.58,5.36 61.18,5.43 C56.27,6.23 52.3,8.81 49.82,11.33 C48.33,12.84 47.38,14.33 47.09,15.4 L47.09,15.4 L47.09,15.4 C47.09,15.4 47.1,15.4 47.1,15.4 C50.28,14.59 54.39,13.88 58.97,13.64 C65.17,13.21 70.35,16.74 70.1,22.16 C70.07,22.81 69.99,23.42 69.88,23.99 C69.87,24.05 69.86,24.1 69.85,24.16 C69.8,24.38 69.74,24.6 69.68,24.81 C69.65,24.91 69.62,25.01 69.6,25.1 C69.54,25.28 69.48,25.46 69.41,25.64 C69.37,25.75 69.32,25.86 69.27,25.97 C69.2,26.13 69.13,26.28 69.06,26.42 C69,26.54 68.94,26.65 68.87,26.76 C68.8,26.89 68.72,27.02 68.64,27.14 C68.56,27.26 68.47,27.38 68.39,27.5 C68.32,27.6 68.25,27.7 68.17,27.8 C68.04,27.96 67.9,28.11 67.76,28.25 C67.72,28.29 67.68,28.34 67.64,28.38 C67.45,28.57 67.25,28.74 67.04,28.91 C67,28.94 66.95,28.97 66.91,29 C66.74,29.13 66.56,29.26 66.38,29.37 C66.32,29.4 66.27,29.44 66.21,29.47 C66.03,29.58 65.85,29.68 65.67,29.77 C65.61,29.8 65.56,29.83 65.5,29.85 C65.31,29.94 65.11,30.03 64.9,30.11 C64.86,30.13 64.81,30.15 64.76,30.16 C64.53,30.25 64.3,30.33 64.06,30.4 C64.04,30.41 64.02,30.41 64,30.42 C62.92,30.74 61.76,30.88 60.58,30.88 C57.02,30.88 53.33,29.56 51.21,27.67 C51.02,27.5 50.79,27.42 50.57,27.42 C50.52,27.42 50.47,27.44 50.43,27.45 C50.39,27.46 50.34,27.46 50.3,27.48 C50.24,27.5 50.18,27.52 50.12,27.55 C50.02,27.6 49.94,27.66 49.86,27.73 C49.84,27.75 49.83,27.77 49.81,27.79 C49.74,27.87 49.68,27.97 49.63,28.07 C49.62,28.09 49.62,28.1 49.61,28.12 C49.56,28.25 49.53,28.4 49.55,28.56 C49.85,31.58 51.75,35.36 56.27,38.2 C60.57,40.91 69.62,40.94 76.06,36.53 C76.12,36.49 76.18,36.45 76.24,36.41 C76.43,36.27 76.63,36.13 76.82,35.99 C76.9,35.93 76.99,35.86 77.07,35.79 C77.35,35.57 77.62,35.34 77.88,35.1 C78.01,34.98 78.14,34.86 78.27,34.74 C78.41,34.63 78.53,34.5 78.65,34.38 Z" fill="#3C2C23"/>
  <path id="hairHighlights" d="M78.65,34.38 C78.79,34.23 78.93,34.09 79.07,33.94 C79.17,33.83 79.27,33.71 79.37,33.6 C79.6,33.33 79.82,33.06 80.03,32.78 C80.06,32.74 80.09,32.7 80.12,32.66 C80.32,32.39 80.5,32.11 80.68,31.82 C80.73,31.74 80.78,31.65 80.83,31.57 C81,31.28 81.17,30.99 81.33,30.68 C81.36,30.63 81.38,30.59 81.4,30.54 C81.78,29.79 82.11,28.98 82.38,28.13 C82.39,28.1 82.4,28.07 82.41,28.04 C82.96,26.27 83.28,24.3 83.28,22.08 C83.28,17.64 81.68,14.13 79.24,11.48 C79.21,11.45 79.19,11.43 79.17,11.4 C78.98,11.2 78.78,11 78.58,10.8 C78.54,10.76 78.5,10.72 78.46,10.68 C78.27,10.5 78.08,10.33 77.88,10.16 C77.83,10.12 77.78,10.08 77.74,10.04 C77.54,9.87 77.34,9.71 77.14,9.55 C77.09,9.51 77.04,9.48 77,9.44 C76.78,9.28 76.56,9.12 76.34,8.96 C76.3,8.94 76.27,8.91 76.23,8.89 C75.43,8.35 74.6,7.87 73.74,7.46 C73.71,7.44 73.67,7.43 73.64,7.41 C73.39,7.29 73.14,7.18 72.89,7.07 C72.8,7.03 72.73,7 72.66,6.97 C72.44,6.88 72.22,6.79 72,6.71 C71.92,6.68 71.83,6.65 71.75,6.62 C71.54,6.54 71.33,6.47 71.13,6.4 C71.04,6.37 70.95,6.34 70.86,6.31 C70.65,6.24 70.45,6.18 70.24,6.12 C70.15,6.09 70.06,6.07 69.96,6.04 C69.75,5.98 69.54,5.93 69.33,5.88 C69.24,5.86 69.16,5.84 69.07,5.82 C68.84,5.77 68.61,5.72 68.39,5.67 C68.32,5.66 68.25,5.64 68.18,5.63 C67.59,5.5 67,5.41 66.41,5.34 C66.33,5.33 66.25,5.33 66.17,5.32 C65.96,5.3 65.76,5.28 65.55,5.27 C65.43,5.26 65.32,5.26 65.2,5.25 C65.03,5.24 64.87,5.23 64.71,5.23 C64.58,5.23 64.45,5.22 64.31,5.22 C64.22,5.22 64.13,5.21 64.05,5.21 C64.02,5.21 63.99,5.21 63.95,5.21 C63.52,5.21 63.09,5.23 62.67,5.26 C62.59,5.27 62.51,5.27 62.43,5.28 C62,5.32 61.58,5.36 61.18,5.43 C56.27,6.23 52.3,8.81 49.82,11.33 C48.33,12.84 47.38,14.33 47.09,15.4 L47.09,15.4 L47.09,15.4 C47.09,15.4 47.1,15.4 47.1,15.4 C50.28,14.59 54.39,13.88 58.97,13.64 C65.17,13.21 70.35,16.74 70.1,22.16 C70.07,22.81 69.99,23.42 69.88,23.99 C69.87,24.05 69.86,24.1 69.85,24.16 C69.8,24.38 69.74,24.6 69.68,24.81 C69.65,24.91 69.62,25.01 69.6,25.1 C69.54,25.28 69.48,25.46 69.41,25.64 C69.37,25.75 69.32,25.86 69.27,25.97 C69.2,26.13 69.13,26.28 69.06,26.42 C69,26.54 68.94,26.65 68.87,26.76 C68.8,26.89 68.72,27.02 68.64,27.14 C68.56,27.26 68.47,27.38 68.39,27.5 C68.32,27.6 68.25,27.7 68.17,27.8 C68.04,27.96 67.9,28.11 67.76,28.25 C67.72,28.29 67.68,28.34 67.64,28.38 C67.45,28.57 67.25,28.74 67.04,28.91 C67,28.94 66.95,28.97 66.91,29 C66.74,29.13 66.56,29.26 66.38,29.37 C66.32,29.4 66.27,29.44 66.21,29.47 C66.03,29.58 65.85,29.68 65.67,29.77 C65.61,29.8 65.56,29.83 65.5,29.85 C65.31,29.94 65.11,30.03 64.9,30.11 C64.86,30.13 64.81,30.15 64.76,30.16 C64.53,30.25 64.3,30.33 64.06,30.4 C64.04,30.41 64.02,30.41 64,30.42 C62.92,30.74 61.76,30.88 60.58,30.88 C57.02,30.88 53.33,29.56 51.21,27.67 C51.02,27.5 50.79,27.42 50.57,27.42 C50.52,27.42 50.47,27.44 50.43,27.45 C50.39,27.46 50.34,27.46 50.3,27.48 C50.24,27.5 50.18,27.52 50.12,27.55 C50.02,27.6 49.94,27.66 49.86,27.73 C49.84,27.75 49.83,27.77 49.81,27.79 C49.74,27.87 49.68,27.97 49.63,28.07 C49.62,28.09 49.62,28.1 49.61,28.12 C49.56,28.25 49.53,28.4 49.55,28.56 C49.85,31.58 51.75,35.36 56.27,38.2 C60.57,40.91 69.62,40.94 76.06,36.53 C76.12,36.49 76.18,36.45 76.24,36.41 C76.43,36.27 76.63,36.13 76.82,35.99 C76.9,35.93 76.99,35.86 77.07,35.79 C77.35,35.57 77.62,35.34 77.88,35.1 C78.01,34.98 78.14,34.86 78.27,34.74 C78.41,34.63 78.53,34.5 78.65,34.38 Z" fill="url(#hairHighlights_1_)"/>
  <path id="nose" d="M69.21,82.71 C69.07,82.65 68.93,82.62 68.79,82.6 L59.49,82.6 C59.35,82.62 59.21,82.65 59.07,82.71 C58.23,83.05 57.76,83.93 58.16,84.85 C58.56,85.78 60.41,88.39 64.14,88.39 C67.87,88.39 69.72,85.78 70.12,84.85 C70.51,83.92 70.05,83.05 69.21,82.71 Z" fill="#875334"/>
  <path d="M48.75,76.92 A6.48 6.71 0 1 1 35.79,76.92 A6.48 6.71 0 1 1 48.75,76.92 Z" fill="#42312C"/>
  <path d="M92.47,76.92 A6.48 6.71 0 1 1 79.51,76.92 A6.48 6.71 0 1 1 92.47,76.92 Z" fill="#42312C"/>
  <path id="mouth" d="M73.46,96.64 C69.86,98.78 58.06,98.78 54.47,96.64 C52.4,95.41 50.29,97.29 51.15,99.17 C51.99,101.02 58.43,105.3 64,105.3 C69.56,105.3 75.92,101.02 76.76,99.17 C77.61,97.29 75.52,95.41 73.46,96.64 Z" fill="#473530"/>
</svg>
